ghost/admin/public/assets/icons/tumbleweed.svg

<?xml version="1.0" encoding="UTF-8"?>
<svg width="44px" height="44px" viewBox="0 0 44 44" version="1.1" xmlns="http://www.w3.org/2000/svg" xmlns:xlink="http://www.w3.org/1999/xlink">
    <!-- Generator: Sketch 51.2 (57519) - http://www.bohemiancoding.com/sketch -->
    <title>Fill 1</title>
    <desc>Created with Sketch.</desc>
    <defs></defs>
    <g id="Page-1" stroke="none" stroke-width="1" fill="none" fill-rule="evenodd">
        <path d="M20.6206865,0.107049525 C16.6732015,0.579543114 13.1198436,2.02870886 10.1667456,4.37051701 C9.34612325,5.02259194 7.76550582,6.61786618 7.04779948,7.52481151 C4.78745543,10.3864917 3.36046043,14.1337622 3.08718687,17.8980174 C3.00471378,19.1466441 3.14170129,21.6086366 3.36617241,22.7021161 C4.2571424,27.1004683 6.5140793,30.821616 9.85499127,33.4353786 C15.2490123,37.6622942 22.6914326,38.337512 28.6880184,35.1640476 C33.0300315,32.8655456 35.9245065,28.9101872 36.8227918,24.0535451 C36.9995628,23.0425062 37.0095838,22.8102821 36.9517625,20.9473244 C36.8939411,19.084466 36.86959,18.8528379 36.6218701,17.8552079 C35.3731493,12.8226595 31.8657879,9.04549195 27.0685193,7.55043761 C25.5890141,7.09721326 24.6746951,6.96183197 22.9148014,6.96391782 C21.5796993,6.961534 21.1993009,6.99917853 20.2858838,7.18173965 C16.0464861,8.03276447 12.770811,10.5992479 11.0932902,14.3797926 C9.86120431,17.1414516 9.74345718,20.33349 10.7676067,23.1636838 C12.1130305,26.8519547 15.3689641,29.5114073 19.2092241,30.0473702 C20.3325818,30.21096 22.4093406,30.0785585 23.4061327,29.7817725 C25.0900669,29.2836528 26.3920997,28.4961966 27.5427146,27.2925647 C29.0206164,25.743477 29.7586655,24.1056912 29.9348352,21.9517085 C30.0920652,20.0476298 29.4564311,18.0135335 28.2480951,16.5118243 C26.3911978,14.2224603 23.1126166,13.3512723 20.502739,14.4620345 C19.3048248,14.971378 18.2504117,15.9231194 17.7284162,16.9787557 C17.4261818,17.580969 17.1651339,18.6632246 17.182771,19.2296806 C17.2320744,20.8179027 18.1360718,22.285841 19.4284843,22.8650107 C19.885744,23.0744891 20.1475936,23.1266353 20.6943411,23.1445139 C21.3365891,23.1594128 21.4223691,23.1397463 21.9514796,22.865706 C23.0178177,22.3003426 23.5886157,21.414951 23.4314859,20.5517091 C23.328169,20.0220037 22.8469591,19.3149022 22.4234702,19.0874458 C21.9914635,18.8596914 21.3599381,18.896442 21.0128095,19.1734621 C20.6994518,19.4149235 20.4109463,19.888013 20.4188629,20.1452673 C20.4289842,20.4714537 20.2053147,20.2463811 20.0611121,19.7865019 C19.8113879,19.0033167 20.0535963,18.1454384 20.69384,17.5414372 C21.2323703,17.0181881 21.7036595,16.8319519 22.629202,16.7607352 C23.6498442,16.6779967 24.409739,16.8696958 25.1545022,17.3883759 C25.8013598,17.8324623 25.9804357,18.0163146 26.3987135,18.6481271 C26.9088843,19.4404503 27.131251,20.1899639 27.1640198,21.2457989 C27.2160289,22.9200373 26.7675877,24.1192989 25.6087556,25.3320689 C24.7944465,26.1903445 24.2168342,26.5776164 23.2140295,26.9603193 C19.648446,28.289102 15.6284086,26.7017739 13.8302346,23.2416547 C13.1018057,21.8459263 12.9525926,21.2229539 12.904692,19.4028057 C12.8513801,17.6854599 12.9315484,17.1932004 13.4679743,15.7674756 C14.261139,13.6637518 16.0991967,11.716963 18.3040243,10.6786094 C20.8331324,9.47557336 24.0279377,9.33562308 26.7375246,10.3183541 C32.2348626,12.2903717 35.3057077,18.2039414 33.9676995,24.2599445 C33.4137368,26.812125 31.9219057,29.2977571 29.90377,31.0437089 C25.5983337,34.7679357 19.0481861,35.4750372 13.8576922,32.7713846 C12.5972468,32.1136481 11.6489565,31.4379336 10.5499499,30.3975935 C8.38861361,28.3579349 6.97705099,25.8916713 6.21404959,22.8296506 C5.97514818,21.8402648 5.9510977,21.617576 5.89027004,19.6601593 C5.82924195,17.6941012 5.84006467,17.4875032 6.02465208,16.4506395 C6.93716729,11.4813618 9.80218043,7.42379701 14.1394836,4.98862246 C17.6846243,2.99832888 22.0666213,2.28069882 26.1725388,3.00597698 C34.1236267,4.42236516 40.0423491,10.7554877 41.1048791,19.007687 C41.6193589,23.013801 40.7682726,27.4396664 38.7885175,30.9719955 C36.8994527,34.3552363 33.9696035,37.1686442 30.4956122,38.9419105 C28.5325922,39.9383485 26.7475457,40.534205 24.4718694,40.9646837 C23.2908908,41.1895576 20.5561511,41.350565 19.3308794,41.2586885 C14.1183393,40.8932683 9.52269384,38.9278062 5.83565541,35.4997694 C4.80900065,34.5428631 3.72151822,33.3043677 2.86993089,32.1272557 C2.21736127,31.2104771 1.94268477,31.0210625 1.33641232,31.0395372 C0.773430719,31.0567206 0.374092581,31.3267878 0.138598321,31.832357 C-0.136779648,32.4508597 -0.0408783683,32.7573796 0.783652172,33.892278 C4.62391218,39.1803921 10.2635488,42.6610717 16.6416352,43.6867116 C18.4105478,43.9763461 19.4444177,44.0395174 21.4192626,43.9792265 C23.4809898,43.9164525 24.4738737,43.7829585 26.3588298,43.3473148 C34.0804361,41.5562691 40.2731334,36.0394073 42.7942248,28.7182895 C45.08373,22.0397113 44.070303,14.5258018 40.115703,8.905641 C38.3923861,6.45745475 35.9649914,4.22848089 33.4399919,2.7668994 C30.0853511,0.832724985 26.0234259,-0.152290556 22.0923753,0.0191460503 C21.4772844,0.0468579931 20.8109859,0.0842045539 20.6206865,0.107049525 Z" id="Fill-1" fill="#9DADB4"></path>
    </g>
</svg>

<svg width="44" height="44" viewBox="0 0 44 44" xmlns="http://www.w3.org/2000/svg">
  <title>tumbleweed</title>
  <path d="M20.62.107c-3.947.473-7.5 1.922-10.453 4.264-.82.652-2.401 2.247-3.12 3.154-2.26 2.861-3.687 6.609-3.96 10.373-.082 1.249.055 3.71.28 4.804.89 4.398 3.147 8.12 6.488 10.733 5.394 4.227 12.836 4.903 18.833 1.729 4.342-2.298 7.237-6.254 8.135-11.11.177-1.011.187-1.244.129-3.107-.058-1.863-.082-2.094-.33-3.092-1.249-5.032-4.756-8.81-9.553-10.305-1.48-.453-2.394-.588-4.154-.586-1.335-.002-1.716.035-2.63.218-4.239.85-7.514 3.417-9.192 7.198a11.833 11.833 0 0 0-.325 8.784c1.345 3.688 4.601 6.347 8.441 6.883 1.124.164 3.2.032 4.197-.265 1.684-.498 2.986-1.286 4.137-2.49 1.478-1.549 2.216-3.186 2.392-5.34.157-1.904-.479-3.938-1.687-5.44-1.857-2.29-5.135-3.16-7.745-2.05-1.198.51-2.253 1.461-2.775 2.517-.302.602-.563 1.684-.545 2.25.05 1.589.953 3.057 2.245 3.636.458.21.72.262 1.266.28.643.014.728-.005 1.257-.28 1.067-.565 1.638-1.45 1.48-2.313-.103-.53-.584-1.237-1.008-1.465-.432-.227-1.063-.19-1.41.086-.314.242-.602.715-.594.972.01.326-.214.101-.358-.358-.25-.784-.007-1.642.633-2.246.538-.523 1.01-.709 1.935-.78 1.02-.083 1.78.109 2.526.627.646.444.825.628 1.244 1.26.51.792.732 1.542.765 2.598.052 1.674-.396 2.873-1.555 4.086-.815.858-1.392 1.246-2.395 1.628-3.566 1.33-7.586-.258-9.384-3.718-.728-1.396-.877-2.019-.925-3.84-.054-1.717.027-2.209.563-3.635.793-2.103 2.631-4.05 4.836-5.088 2.53-1.203 5.724-1.343 8.434-.36 5.497 1.971 8.568 7.885 7.23 13.94-.554 2.553-2.046 5.039-4.064 6.785-4.306 3.724-10.856 4.431-16.046 1.727-1.26-.657-2.209-1.333-3.308-2.373-2.161-2.04-3.573-4.506-4.336-7.568-.239-.99-.263-1.212-.324-3.17-.06-1.966-.05-2.172.135-3.21.912-4.969 3.777-9.026 8.114-11.461 3.546-1.99 7.928-2.708 12.034-1.983 7.95 1.416 13.87 7.75 14.932 16.002.514 4.006-.337 8.432-2.316 11.964-1.89 3.383-4.82 6.197-8.293 7.97-1.963.996-3.748 1.592-6.024 2.023-1.181.225-3.916.386-5.141.294-5.213-.366-9.808-2.331-13.495-5.76a24.332 24.332 0 0 1-2.966-3.372c-.653-.917-.927-1.106-1.534-1.087-.563.017-.962.287-1.197.792-.276.619-.18.925.645 2.06 3.84 5.288 9.48 8.77 15.858 9.795 1.769.29 2.802.353 4.777.292 2.062-.063 3.055-.196 4.94-.632 7.721-1.79 13.914-7.308 16.435-14.629 2.29-6.678 1.276-14.192-2.678-19.812-1.724-2.449-4.151-4.678-6.676-6.14C30.085.834 26.023-.151 22.092.02a33.85 33.85 0 0 0-1.471.088Z" fill="#9DADB4" fill-rule="evenodd"/>
</svg>
